public/assets/imgs/projetos/icons/lavanderia.svg

<svg fill="none" height="45" viewBox="0 0 39 45" width="39" xmlns="http://www.w3.org/2000/svg"><path clip-rule="evenodd" d="m4.47134 2h30.05736c1.3719 0 2.484 1.11929 2.484 2.5v4.75h-35.02544v-4.75c0-1.38071 1.11213-2.5 2.48408-2.5zm-2.48408 9.25v24.5c0 1.3807 1.11213 2.5 2.48408 2.5h15.15286 14.9045c1.3719 0 2.484-1.1193 2.484-2.5v-24.5zm17.63694 27c-7.2711 0-13.1656-5.9322-13.1656-13.25s5.8945-13.25 13.1656-13.25 13.1656 5.9322 13.1656 13.25-5.8945 13.25-13.1656 13.25zm-19.6242-2.5c0 1.9594 1.24422 3.6262 2.98089 4.244v1.256c0 2.0711 1.66826 3.75 3.72612 3.75h25.83439c2.0579 0 3.7261-1.6789 3.7261-3.75v-1.353c1.6057-.6827 2.7325-2.2824 2.7325-4.147v-31.25c0-2.48529-2.0019-4.5-4.4713-4.5h-30.05736c-2.46946 0-4.47134 2.01471-4.47134 4.5zm4.96815 5.5v-1h29.31215v1c0 .9665-.7785 1.75-1.7389 1.75h-25.83439c-.96034 0-1.73886-.7835-1.73886-1.75zm14.65605-4.5c6.4481 0 11.6752-5.2607 11.6752-11.75s-5.2271-11.75-11.6752-11.75c-6.448 0-11.67516 5.2607-11.67516 11.75s5.22716 11.75 11.67516 11.75zm-2.8777-12.68c1.458-1.9915 4.0891-2.8691 7.5974-2.2734v6.9534c0 .5523.445 1 .9937 1h.9899c-1.4839 2.1172-3.9332 3.5-6.7033 3.5-4.1575 0-7.5921-3.1149-8.1255-7.1523.6077.0455 1.3304.0282 2.066-.1181 1.1208-.2228 2.3407-.7608 3.1818-1.9096zm-5.3096.5166c.214-4.3643 3.7977-7.8366 8.1873-7.8366 2.8392 0 5.3413 1.4526 6.8124 3.6596-.2727.0562-.7211.1009-1.4641-.0228-4.0102-.7786-7.4567.1037-9.4259 2.7934-.55.7512-1.3795 1.1506-2.2707 1.3279-.663.1317-1.3218.1317-1.839.0785zm15.7311-2.8202-.0457.0137c-.0854.0252-.1928.0554-.2957.0792-.3608.0831-.836.1398-1.489.0847v6.806h1.5902c.15-.2952.2828-.6006.397-.915v-5.67c-.0488-.1345-.1012-.2674-.1568-.3986zm1.1505 6.9836v.5561c-1.5801 3.2251-4.8798 5.4439-8.6943 5.4439-5.3505 0-9.68789-4.3652-9.68789-9.75s4.33739-9.75 9.68789-9.75c3.8145 0 7.1142 2.2188 8.6943 5.4439v.8061zm-20.61786-23c0 .55228-.44484 1-.99363 1s-.99363-.44772-.99363-1 .44484-1 .99363-1 .99363.44772.99363 1zm1.49044 0c0 1.38071-1.11213 2.5-2.48407 2.5-1.37195 0-2.48408-1.11929-2.48408-2.5s1.11213-2.5 2.48408-2.5c1.37194 0 2.48407 1.11929 2.48407 2.5zm19.62422 0c0 1.38071-1.1121 2.5-2.4841 2.5-1.3719 0-2.4841-1.11929-2.4841-2.5s1.1122-2.5 2.4841-2.5c1.372 0 2.4841 1.11929 2.4841 2.5zm3.4777 2.5c1.3719 0 2.4841-1.11929 2.4841-2.5s-1.1122-2.5-2.4841-2.5-2.4841 1.11929-2.4841 2.5 1.1122 2.5 2.4841 2.5z" fill="#000" fill-rule="evenodd"/></svg>

<svg width="39" height="45" viewBox="0 0 39 45" fill="none" xmlns="http://www.w3.org/2000/svg">
<path fill-rule="evenodd" clip-rule="evenodd" d="M4.47134 2H34.5287C35.9006 2 37.0127 3.11929 37.0127 4.5V9.25H1.98726V4.5C1.98726 3.11929 3.09939 2 4.47134 2ZM1.98726 11.25V35.75C1.98726 37.1307 3.09939 38.25 4.47134 38.25H19.6242H34.5287C35.9006 38.25 37.0127 37.1307 37.0127 35.75V11.25H1.98726ZM19.6242 38.25C12.3531 38.25 6.4586 32.3178 6.4586 25C6.4586 17.6822 12.3531 11.75 19.6242 11.75C26.8953 11.75 32.7898 17.6822 32.7898 25C32.7898 32.3178 26.8953 38.25 19.6242 38.25ZM0 35.75C0 37.7094 1.24422 39.3762 2.98089 39.994V41.25C2.98089 43.3211 4.64915 45 6.70701 45H32.5414C34.5993 45 36.2675 43.3211 36.2675 41.25V39.897C37.8732 39.2143 39 37.6146 39 35.75V4.5C39 2.01471 36.9981 0 34.5287 0H4.47134C2.00188 0 0 2.01471 0 4.5V35.75ZM4.96815 41.25V40.25H34.2803V41.25C34.2803 42.2165 33.5018 43 32.5414 43H6.70701C5.74667 43 4.96815 42.2165 4.96815 41.25ZM19.6242 36.75C26.0723 36.75 31.2994 31.4893 31.2994 25C31.2994 18.5107 26.0723 13.25 19.6242 13.25C13.1762 13.25 7.94904 18.5107 7.94904 25C7.94904 31.4893 13.1762 36.75 19.6242 36.75ZM16.7465 24.07C18.2045 22.0785 20.8356 21.2009 24.3439 21.7966V28.75C24.3439 29.3023 24.7889 29.75 25.3376 29.75H26.3275C24.8436 31.8672 22.3943 33.25 19.6242 33.25C15.4667 33.25 12.0321 30.1351 11.4987 26.0977C12.1064 26.1432 12.8291 26.1259 13.5647 25.9796C14.6855 25.7568 15.9054 25.2188 16.7465 24.07ZM11.4369 24.5866C11.6509 20.2223 15.2346 16.75 19.6242 16.75C22.4634 16.75 24.9655 18.2026 26.4366 20.4096C26.1639 20.4658 25.7155 20.5105 24.9725 20.3868C20.9623 19.6082 17.5158 20.4905 15.5466 23.1802C14.9966 23.9314 14.1671 24.3308 13.2759 24.5081C12.6129 24.6398 11.9541 24.6398 11.4369 24.5866ZM27.168 21.7664L27.1223 21.7801C27.0369 21.8053 26.9295 21.8355 26.8266 21.8593C26.4658 21.9424 25.9906 21.9991 25.3376 21.944V28.75H26.9278C27.0778 28.4548 27.2106 28.1494 27.3248 27.835V22.165C27.276 22.0305 27.2236 21.8976 27.168 21.7664ZM28.3185 28.75V29.3061C26.7384 32.5312 23.4387 34.75 19.6242 34.75C14.2737 34.75 9.93631 30.3848 9.93631 25C9.93631 19.6152 14.2737 15.25 19.6242 15.25C23.4387 15.25 26.7384 17.4688 28.3185 20.6939V21.5V28.75ZM7.70064 5.75C7.70064 6.30228 7.2558 6.75 6.70701 6.75C6.15822 6.75 5.71338 6.30228 5.71338 5.75C5.71338 5.19772 6.15822 4.75 6.70701 4.75C7.2558 4.75 7.70064 5.19772 7.70064 5.75ZM9.19108 5.75C9.19108 7.13071 8.07895 8.25 6.70701 8.25C5.33506 8.25 4.22293 7.13071 4.22293 5.75C4.22293 4.36929 5.33506 3.25 6.70701 3.25C8.07895 3.25 9.19108 4.36929 9.19108 5.75ZM28.8153 5.75C28.8153 7.13071 27.7032 8.25 26.3312 8.25C24.9593 8.25 23.8471 7.13071 23.8471 5.75C23.8471 4.36929 24.9593 3.25 26.3312 3.25C27.7032 3.25 28.8153 4.36929 28.8153 5.75ZM32.293 8.25C33.6649 8.25 34.7771 7.13071 34.7771 5.75C34.7771 4.36929 33.6649 3.25 32.293 3.25C30.9211 3.25 29.8089 4.36929 29.8089 5.75C29.8089 7.13071 30.9211 8.25 32.293 8.25Z" fill="black"/>
</svg>
